X: 10018
T: CAROL'S HARP
C: Bob McQuillen 28 Oct 93
B: Bob's Note Book 10 #18
%R: waltz
Z: 2021 John Chambers <jc:trillian.mit.edu>
M: 3/4
L: 1/8
K: Em
|:"Em"E3GB2 | "D"A2F2D2 | "Em"E2G3B | "D"A6 | "Em"E3GB2 | d2e3d | B2G2E2 | "Bm"F6 |\
| "Em"E3GB2 | "D"A2F2D2 | "Em"E2G3B | "D"d3Bd2 | "Em"e2d3B | "Bm"d2B2d2 | "Em"E2G3B | "Am"A6 :|
|:"Em"e2g3f | e2d2B2 | G3AB2 | "Am"A6 | "Em"e3dB2 | "Am"A2G2A2 | "Em"B2G3E | "Bm"D6 |\
| "Em"E2G3F | E2D2E2 | G2B3G | "Am"A2B2d2 | "Em"g3fe2 | d2B2G2 | "Bm"D2E3F | "Em"E6 :|
%%begintext align
%% Carol Thompson is a regular at
%% Irish Week at Augusta, and with good reason, as you might expect. She is
%% a marvelous harp player, and regularly makes us all "swoon with delight"
%% over her stellar performance. It's just another good reason to look forward
%% to the annual pilgrimmage to Elkins, WV. You can't surpass that
%% great Augusta Experience. Thanks so much, Carol, for your beautiful
%% music - See you next year!
%%endtext

%%sep 1 1 500

%%sep 1 1 500

